src/epub/images/titlepage.svg

<?xml version="1.0" encoding="utf-8"?>
<svg xmlns="http://www.w3.org/2000/svg" xmlns:svg="http://www.w3.org/2000/svg" version="1.1" viewBox="0 0 1400 440">
	<title>The titlepage for the Standard Ebooks edition of The Turn of the Screw, by Henry James</title>
	<g aria-label="THE TURN OF">
		<path d="m 359.41081,68.245613 h 18.33918 V 130 h 17.59065 V 68.245613 h 18.33918 V 52.807016 h -54.26901 z"/>
		<path d="m 442.60526,99.029239 h 24.88889 V 130 h 17.59064 V 52.807016 H 467.49415 V 83.590642 H 442.60526 V 52.807016 H 425.01461 V 130 h 17.59065 z"/>
		<path d="M 545.45029,52.807016 H 501.28655 V 130 h 44.16374 v -15.4386 h -26.5731 V 99.029239 h 25.4503 V 83.590642 h -25.4503 V 68.245613 h 26.5731 z"/>
		<path d="m 581.71346,68.245613 h 18.33918 V 130 h 17.59064 V 68.245613 h 18.33918 V 52.807016 h -54.269 z"/>
		<path d="m 706.6389,52.807016 h -17.59064 v 44.63158 c 0,12.912284 -3.92982,16.654974 -12.53801,16.654974 -8.60819,0 -12.53801,-3.74269 -12.53801,-16.654974 v -44.63158 h -17.59065 v 49.777774 c 0,19.08772 10.47953,28.81872 30.12866,28.81872 19.64912,0 30.12865,-9.731 30.12865,-28.81872 z"/>
		<path d="M 721.94446,52.807016 V 130 h 17.59065 V 99.497075 L 763.11405,130 h 22.36258 l -26.5731,-31.906433 c 9.45029,-2.994152 15.81286,-10.760234 15.81286,-22.362574 0,-15.157895 -10.8538,-22.923977 -25.16959,-22.923977 z m 17.59065,34.245615 V 66.842104 h 2.05848 c 6.64327,0 14.59649,0.467836 14.59649,10.105263 0,9.637428 -7.95322,10.105264 -14.59649,10.105264 z"/>
		<path d="m 811.6038,82.093566 h 0.18714 L 842.48099,130 h 17.59065 V 52.807016 h -17.59065 v 47.906434 h -0.18713 L 811.6038,52.807016 H 794.01316 V 130 h 17.59064 z"/>
		<path d="m 903.43859,91.356724 c 0,22.549706 16.09357,40.046786 38.92398,40.046786 22.17544,0 38.83041,-17.49708 38.83041,-40.046786 0,-22.549708 -17.40351,-39.953217 -38.83041,-39.953217 -21.23977,0 -38.92398,17.403509 -38.92398,39.953217 z m 18.99415,0 c 0,-11.508772 6.36258,-23.017544 19.92983,-23.017544 13.66082,0 19.83625,11.508772 19.83625,23.017544 0,11.508776 -5.80117,23.017546 -19.83625,23.017546 -14.40936,0 -19.92983,-11.50877 -19.92983,-23.017546 z"/>
		<path d="M 1038.5863,52.807016 H 993.95472 V 130 h 17.59068 V 99.029239 h 24.9824 V 83.590642 h -24.9824 V 68.245613 h 27.0409 z"/>
	</g>
	<g aria-label="THE SCREW">
		<path d="m 399.86403,168.24561 h 18.33918 V 230 h 17.59065 v -61.75439 h 18.33918 v -15.43859 h -54.26901 z"/>
		<path d="m 483.05848,199.02924 h 24.88888 V 230 h 17.59065 v -77.19298 h -17.59065 v 30.78362 H 483.05848 V 152.80702 H 465.46783 V 230 h 17.59065 z"/>
		<path d="M 585.90351,152.80702 H 541.73977 V 230 h 44.16374 v -15.4386 h -26.5731 v -15.53216 h 25.45029 v -15.4386 h -25.45029 v -15.34503 h 26.5731 z"/>
		<path d="m 658.21784,151.40351 c -12.44444,0 -25.16959,9.16959 -25.16959,23.57895 0,8.04678 5.4269,15.25146 14.69006,19.83625 9.16959,4.5848 17.40351,7.11111 17.40351,12.72515 0,7.20468 -7.29825,7.57895 -11.13451,7.57895 -8.60818,0 -18.90058,-8.70176 -18.90058,-8.70176 l -8.79532,14.78363 c 0,0 10.94737,10.19883 29.00585,10.19883 15.06432,0 29.09941,-6.45614 29.09941,-24.88889 0,-10.10526 -9.45029,-17.40351 -18.05848,-21.05263 -8.79532,-3.74269 -16.09357,-6.83041 -16.09357,-11.13451 0,-4.21052 3.18129,-6.92397 9.1696,-6.92397 7.95321,0 15.62573,5.33333 15.62573,5.33333 l 7.11111,-14.03509 c 0,0 -9.91813,-7.29824 -23.95322,-7.29824 z"/>
		<path d="m 735.79093,214.09357 c -17.68421,0 -25.45029,-12.35088 -25.45029,-22.73685 0,-10.29239 7.76608,-22.64327 25.45029,-22.64327 8.98246,0 15.1579,4.77193 15.1579,4.77193 l 7.48538,-14.97076 c 0,0 -8.60819,-7.11111 -25.35673,-7.11111 -21.89473,0 -41.82456,17.96491 -41.82456,40.14035 0,22.08187 20.02339,39.85965 41.82456,39.85965 16.74854,0 25.35673,-7.11111 25.35673,-7.11111 l -7.48538,-14.97076 c 0,0 -6.17544,4.77193 -15.1579,4.77193 z"/>
		<path d="M 770.25586,152.80702 V 230 h 17.59065 V 199.49708 L 811.42546,230 h 22.36257 l -26.5731,-31.90643 c 9.45029,-2.99416 15.81286,-10.76024 15.81286,-22.36258 0,-15.15789 -10.8538,-22.92397 -25.16959,-22.92397 z m 17.59065,34.24561 V 166.8421 h 2.05848 c 6.64327,0 14.59649,0.46784 14.59649,10.10527 0,9.63742 -7.95322,10.10526 -14.59649,10.10526 z"/>
		<path d="M 886.4883,152.80702 H 842.32456 V 230 h 44.16374 v -15.4386 h -26.5731 v -15.53216 h 25.4503 v -15.4386 h -25.4503 v -15.34503 h 26.5731 z"/>
		<path d="m 960.82897,230 h 19.46199 l 21.98834,-77.19298 h -19.46203 l -13.19298,52.95906 h -0.46784 l -14.03509,-52.95906 h -13.28655 l -14.03508,52.95906 h -0.46784 L 914.13891,152.80702 H 894.58335 L 916.57166,230 h 19.55555 l 12.35088,-43.32164 z"/>
	</g>
	<g aria-label="HENRY JAMES">
		<path d="m 437.88048,366.77193 h 18.66667 V 390 h 13.19298 v -57.89474 h -13.19298 v 23.08772 H 437.88048 V 332.10526 H 424.6875 V 390 h 13.19298 z"/>
		<path d="m 516.26425,332.10526 h -33.1228 V 390 h 33.1228 v -11.57895 h -19.92982 v -11.64912 h 19.08772 v -11.57895 h -19.08772 v -11.50877 h 19.92982 z"/>
		<path d="m 542.04166,354.07018 h 0.14035 L 565.19956,390 h 13.19298 v -57.89474 h -13.19298 v 35.92983 h -0.14035 L 542.04166,332.10526 H 528.84868 V 390 h 13.19298 z"/>
		<path d="M 591.82566,332.10526 V 390 h 13.19298 V 367.12281 L 622.70285,390 h 16.77193 l -19.92983,-23.92982 c 7.08772,-2.24562 11.85965,-8.07018 11.85965,-16.77193 0,-11.36842 -8.14035,-17.19299 -18.87719,-17.19299 z m 13.19298,25.68421 v -15.15789 h 1.54386 c 4.98245,0 10.94737,0.35088 10.94737,7.57895 0,7.22807 -5.96492,7.57894 -10.94737,7.57894 z"/>
		<path d="m 634.50659,332.10526 21.33333,31.92983 V 390 h 13.19298 v -25.96491 l 21.33333,-31.92983 h -15.85964 l -12.07018,18.52632 -12.07018,-18.52632 z"/>
		<path d="m 746.87609,332.10526 h -13.19298 v 38.17544 c 0,5.82456 -2.8772,8.14035 -6.66667,8.14035 -3.36842,0 -7.50877,-3.92982 -7.50877,-3.92982 l -4.21053,11.01754 c 0,0 5.26316,5.54386 13.54386,5.54386 11.57895,0 18.03509,-6.03509 18.03509,-17.40351 z"/>
		<path d="M 788.98136,332.10526 H 776.77084 L 753.40241,390 h 14.17544 l 4.2807,-11.57895 h 22.03509 L 798.17434,390 h 14.17544 z m 0.42105,34.73685 H 776.34978 L 782.80592,350 h 0.14035 z"/>
		<path d="m 867.39914,390 h 13.19298 l -5.19298,-57.89474 h -14.03509 l -12.8421,33.40351 -12.84211,-33.40351 H 821.64476 L 816.45177,390 h 13.19299 l 2.73684,-34.31579 h 0.35087 l 11.85965,33.96491 h 7.85965 l 11.85965,-33.96491 h 0.35088 z"/>
		<path d="M 924.00001,332.10526 H 890.8772 V 390 h 33.12281 v -11.57895 h -19.92983 v -11.64912 h 19.08772 v -11.57895 h -19.08772 v -11.50877 h 19.92983 z"/>
		<path d="m 957.91778,331.05263 c -9.33334,0 -18.8772,6.8772 -18.8772,17.68421 0,6.03509 4.07018,11.4386 11.01755,14.8772 6.87719,3.43859 13.05263,5.33333 13.05263,9.54385 0,5.40351 -5.47368,5.68422 -8.35088,5.68422 -6.45614,0 -14.17544,-6.52632 -14.17544,-6.52632 l -6.59649,11.08772 c 0,0 8.21053,7.64912 21.75439,7.64912 11.29824,0 21.82456,-4.8421 21.82456,-18.66666 0,-7.57895 -7.08772,-13.05264 -13.54386,-15.78948 -6.59649,-2.80702 -12.07017,-5.12281 -12.07017,-8.35088 0,-3.15789 2.38596,-5.19298 6.87719,-5.19298 5.96491,0 11.7193,4 11.7193,4 l 5.33333,-10.52631 c 0,0 -7.4386,-5.47369 -17.96491,-5.47369 z"/>
	</g>
</svg>

<?xml version="1.0" encoding="utf-8"?>
<svg xmlns="http://www.w3.org/2000/svg" xmlns:svg="http://www.w3.org/2000/svg" version="1.1" viewBox="0 0 1400 440">
	<title>The titlepage for the Standard Ebooks edition of The Turn of the Screw, by Henry James</title>
	<g>
		<path d="m 359.41081,68.245613 18.33918,0 0,61.754387 17.59065,0 0,-61.754387 18.33918,0 0,-15.438597 -54.26901,0 0,15.438597 z"/>
		<path d="m 442.60526,99.029239 24.88889,0 0,30.970761 17.59064,0 0,-77.192984 -17.59064,0 0,30.783626 -24.88889,0 0,-30.783626 -17.59065,0 0,77.192984 17.59065,0 0,-30.970761 z"/>
		<path d="m 545.45029,52.807016 -44.16374,0 0,77.192984 44.16374,0 0,-15.4386 -26.5731,0 0,-15.532161 25.4503,0 0,-15.438597 -25.4503,0 0,-15.345029 26.5731,0 0,-15.438597 z"/>
		<path d="m 581.71346,68.245613 18.33918,0 0,61.754387 17.59064,0 0,-61.754387 18.33918,0 0,-15.438597 -54.269,0 0,15.438597 z"/>
		<path d="m 706.6389,52.807016 -17.59064,0 0,44.63158 c 0,12.912284 -3.92982,16.654974 -12.53801,16.654974 -8.60819,0 -12.53801,-3.74269 -12.53801,-16.654974 l 0,-44.63158 -17.59065,0 0,49.777774 c 0,19.08772 10.47953,28.81872 30.12866,28.81872 19.64912,0 30.12865,-9.731 30.12865,-28.81872 l 0,-49.777774 z"/>
		<path d="m 721.94446,52.807016 0,77.192984 17.59065,0 0,-30.502925 L 763.11405,130 l 22.36258,0 -26.5731,-31.906433 c 9.45029,-2.994152 15.81286,-10.760234 15.81286,-22.362574 0,-15.157895 -10.8538,-22.923977 -25.16959,-22.923977 l -27.60234,0 z m 17.59065,34.245615 0,-20.210527 2.05848,0 c 6.64327,0 14.59649,0.467836 14.59649,10.105263 0,9.637428 -7.95322,10.105264 -14.59649,10.105264 l -2.05848,0 z"/>
		<path d="m 811.6038,82.093566 0.18714,0 L 842.48099,130 l 17.59065,0 0,-77.192984 -17.59065,0 0,47.906434 -0.18713,0 -30.69006,-47.906434 -17.59064,0 0,77.192984 17.59064,0 0,-47.906434 z"/>
		<path d="m 903.43859,91.356724 c 0,22.549706 16.09357,40.046786 38.92398,40.046786 22.17544,0 38.83041,-17.49708 38.83041,-40.046786 0,-22.549708 -17.40351,-39.953217 -38.83041,-39.953217 -21.23977,0 -38.92398,17.403509 -38.92398,39.953217 z m 18.99415,0 c 0,-11.508772 6.36258,-23.017544 19.92983,-23.017544 13.66082,0 19.83625,11.508772 19.83625,23.017544 0,11.508776 -5.80117,23.017546 -19.83625,23.017546 -14.40936,0 -19.92983,-11.50877 -19.92983,-23.017546 z"/>
		<path d="m 1038.5863,52.807016 -44.63158,0 0,77.192984 17.59068,0 0,-30.970761 24.9824,0 0,-15.438597 -24.9824,0 0,-15.345029 27.0409,0 0,-15.438597 z"/>
	</g>
	<g>
		<path d="m 399.86403,168.24561 18.33918,0 0,61.75439 17.59065,0 0,-61.75439 18.33918,0 0,-15.43859 -54.26901,0 0,15.43859 z"/>
		<path d="m 483.05848,199.02924 24.88888,0 0,30.97076 17.59065,0 0,-77.19298 -17.59065,0 0,30.78362 -24.88888,0 0,-30.78362 -17.59065,0 0,77.19298 17.59065,0 0,-30.97076 z"/>
		<path d="m 585.90351,152.80702 -44.16374,0 0,77.19298 44.16374,0 0,-15.4386 -26.5731,0 0,-15.53216 25.45029,0 0,-15.4386 -25.45029,0 0,-15.34503 26.5731,0 0,-15.43859 z"/>
		<path d="m 658.21784,151.40351 c -12.44444,0 -25.16959,9.16959 -25.16959,23.57895 0,8.04678 5.4269,15.25146 14.69006,19.83625 9.16959,4.5848 17.40351,7.11111 17.40351,12.72515 0,7.20468 -7.29825,7.57895 -11.13451,7.57895 -8.60818,0 -18.90058,-8.70176 -18.90058,-8.70176 l -8.79532,14.78363 c 0,0 10.94737,10.19883 29.00585,10.19883 15.06432,0 29.09941,-6.45614 29.09941,-24.88889 0,-10.10526 -9.45029,-17.40351 -18.05848,-21.05263 -8.79532,-3.74269 -16.09357,-6.83041 -16.09357,-11.13451 0,-4.21052 3.18129,-6.92397 9.1696,-6.92397 7.95321,0 15.62573,5.33333 15.62573,5.33333 l 7.11111,-14.03509 c 0,0 -9.91813,-7.29824 -23.95322,-7.29824 z"/>
		<path d="m 735.79093,214.09357 c -17.68421,0 -25.45029,-12.35088 -25.45029,-22.73685 0,-10.29239 7.76608,-22.64327 25.45029,-22.64327 8.98246,0 15.1579,4.77193 15.1579,4.77193 l 7.48538,-14.97076 c 0,0 -8.60819,-7.11111 -25.35673,-7.11111 -21.89473,0 -41.82456,17.96491 -41.82456,40.14035 0,22.08187 20.02339,39.85965 41.82456,39.85965 16.74854,0 25.35673,-7.11111 25.35673,-7.11111 l -7.48538,-14.97076 c 0,0 -6.17544,4.77193 -15.1579,4.77193 z"/>
		<path d="m 770.25586,152.80702 0,77.19298 17.59065,0 0,-30.50292 23.57895,30.50292 22.36257,0 -26.5731,-31.90643 c 9.45029,-2.99416 15.81286,-10.76024 15.81286,-22.36258 0,-15.15789 -10.8538,-22.92397 -25.16959,-22.92397 l -27.60234,0 z m 17.59065,34.24561 0,-20.21053 2.05848,0 c 6.64327,0 14.59649,0.46784 14.59649,10.10527 0,9.63742 -7.95322,10.10526 -14.59649,10.10526 l -2.05848,0 z"/>
		<path d="m 886.4883,152.80702 -44.16374,0 0,77.19298 44.16374,0 0,-15.4386 -26.5731,0 0,-15.53216 25.4503,0 0,-15.4386 -25.4503,0 0,-15.34503 26.5731,0 0,-15.43859 z"/>
		<path d="m 960.82897,230 19.46199,0 21.98834,-77.19298 -19.46203,0 -13.19298,52.95906 -0.46784,0 -14.03509,-52.95906 -13.28655,0 -14.03508,52.95906 -0.46784,0 -13.19298,-52.95906 -19.55556,0 L 916.57166,230 936.12721,230 948.47809,186.67836 960.82897,230 Z"/>
	</g>
	<g>
		<path d="m 437.88048,366.77193 18.66667,0 0,23.22807 13.19298,0 0,-57.89474 -13.19298,0 0,23.08772 -18.66667,0 0,-23.08772 -13.19298,0 0,57.89474 13.19298,0 0,-23.22807 z"/>
		<path d="m 516.26425,332.10526 -33.1228,0 0,57.89474 33.1228,0 0,-11.57895 -19.92982,0 0,-11.64912 19.08772,0 0,-11.57895 -19.08772,0 0,-11.50877 19.92982,0 0,-11.57895 z"/>
		<path d="m 542.04166,354.07018 0.14035,0 23.01755,35.92982 13.19298,0 0,-57.89474 -13.19298,0 0,35.92983 -0.14035,0 -23.01755,-35.92983 -13.19298,0 0,57.89474 13.19298,0 0,-35.92982 z"/>
		<path d="m 591.82566,332.10526 0,57.89474 13.19298,0 0,-22.87719 17.68421,22.87719 16.77193,0 -19.92983,-23.92982 c 7.08772,-2.24562 11.85965,-8.07018 11.85965,-16.77193 0,-11.36842 -8.14035,-17.19299 -18.87719,-17.19299 l -20.70175,0 z m 13.19298,25.68421 0,-15.15789 1.54386,0 c 4.98245,0 10.94737,0.35088 10.94737,7.57895 0,7.22807 -5.96492,7.57894 -10.94737,7.57894 l -1.54386,0 z"/>
		<path d="m 634.50659,332.10526 21.33333,31.92983 0,25.96491 13.19298,0 0,-25.96491 21.33333,-31.92983 -15.85964,0 -12.07018,18.52632 -12.07018,-18.52632 -15.85964,0 z"/>
		<path d="m 746.87609,332.10526 -13.19298,0 0,38.17544 c 0,5.82456 -2.8772,8.14035 -6.66667,8.14035 -3.36842,0 -7.50877,-3.92982 -7.50877,-3.92982 l -4.21053,11.01754 c 0,0 5.26316,5.54386 13.54386,5.54386 11.57895,0 18.03509,-6.03509 18.03509,-17.40351 l 0,-41.54386 z"/>
		<path d="m 788.98136,332.10526 -12.21052,0 L 753.40241,390 l 14.17544,0 4.2807,-11.57895 22.03509,0 4.2807,11.57895 14.17544,0 -23.36842,-57.89474 z m 0.42105,34.73685 -13.05263,0 6.45614,-16.84211 0.14035,0 6.45614,16.84211 z"/>
		<path d="m 867.39914,390 13.19298,0 -5.19298,-57.89474 -14.03509,0 -12.8421,33.40351 -12.84211,-33.40351 -14.03508,0 -5.19299,57.89474 13.19299,0 2.73684,-34.31579 0.35087,0 11.85965,33.96491 7.85965,0 11.85965,-33.96491 0.35088,0 L 867.39914,390 Z"/>
		<path d="m 924.00001,332.10526 -33.12281,0 0,57.89474 33.12281,0 0,-11.57895 -19.92983,0 0,-11.64912 19.08772,0 0,-11.57895 -19.08772,0 0,-11.50877 19.92983,0 0,-11.57895 z"/>
		<path d="m 957.91778,331.05263 c -9.33334,0 -18.8772,6.8772 -18.8772,17.68421 0,6.03509 4.07018,11.4386 11.01755,14.8772 6.87719,3.43859 13.05263,5.33333 13.05263,9.54385 0,5.40351 -5.47368,5.68422 -8.35088,5.68422 -6.45614,0 -14.17544,-6.52632 -14.17544,-6.52632 l -6.59649,11.08772 c 0,0 8.21053,7.64912 21.75439,7.64912 11.29824,0 21.82456,-4.8421 21.82456,-18.66666 0,-7.57895 -7.08772,-13.05264 -13.54386,-15.78948 -6.59649,-2.80702 -12.07017,-5.12281 -12.07017,-8.35088 0,-3.15789 2.38596,-5.19298 6.87719,-5.19298 5.96491,0 11.7193,4 11.7193,4 l 5.33333,-10.52631 c 0,0 -7.4386,-5.47369 -17.96491,-5.47369 z"/>
	</g>
</svg>
